packages/icons/raw/imported/GenericSearch.svg

<svg width="32" height="32" viewBox="0 0 32 32" fill="none" xmlns="http://www.w3.org/2000/svg">
<path d="M24.6468 25.3539C24.8422 25.549 25.1588 25.5487 25.3539 25.3532C25.549 25.1578 25.5487 24.8412 25.3532 24.6461L24.6468 25.3539ZM14.9615 22.4231C10.8406 22.4231 7.5 19.0824 7.5 14.9615H6.5C6.5 19.6347 10.2884 23.4231 14.9615 23.4231V22.4231ZM7.5 14.9615C7.5 10.8406 10.8406 7.5 14.9615 7.5V6.5C10.2884 6.5 6.5 10.2884 6.5 14.9615H7.5ZM14.9615 7.5C19.0824 7.5 22.4231 10.8406 22.4231 14.9615H23.4231C23.4231 10.2884 19.6347 6.5 14.9615 6.5V7.5ZM22.4231 14.9615C22.4231 17.0241 21.5869 18.8903 20.2338 20.2414L20.9404 20.9491C22.4737 19.418 23.4231 17.3002 23.4231 14.9615H22.4231ZM20.2338 20.2414C18.8833 21.59 17.0202 22.4231 14.9615 22.4231V23.4231C17.2958 23.4231 19.4101 22.4772 20.9404 20.9491L20.2338 20.2414ZM20.2339 20.9491L24.6468 25.3539L25.3532 24.6461L20.9404 20.2414L20.2339 20.9491Z" fill="black"/>
</svg>

<svg width="32" height="32" fill="none" xmlns="http://www.w3.org/2000/svg"><path d="M24.647 25.354a.5.5 0 1 0 .706-.708l-.706.708Zm-9.685-2.93A7.462 7.462 0 0 1 7.5 14.96h-1a8.462 8.462 0 0 0 8.461 8.462v-1ZM7.5 14.96c0-4.12 3.34-7.461 7.461-7.461v-1A8.462 8.462 0 0 0 6.5 14.961h1ZM14.961 7.5c4.121 0 7.462 3.34 7.462 7.461h1A8.462 8.462 0 0 0 14.962 6.5v1Zm7.462 7.461a7.436 7.436 0 0 1-2.19 5.28l.707.708a8.437 8.437 0 0 0 2.483-5.988h-1Zm-2.19 5.28a7.436 7.436 0 0 1-5.272 2.182v1a8.437 8.437 0 0 0 5.98-2.474l-.707-.708Zm0 .708 4.414 4.405.706-.708-4.413-4.405-.706.708Z" fill="#000"/></svg>
